X: 23758
T: Little Christmas
R: waltz
M: 3/4
K: Dmajor
|:B2 G2 B/c/d|c2 A2 A/B/c|dc de fd|g3d dc|
B2 G2 B/c/d|c2 A2 A/B/c|d2 f2 ec|dA FA DA|
B2 G2 B/c/d|c2 A2 A/B/c|dc de fd|g3d ga|
bg eg bg|af df af|e/f/g ed A/B/c|1 d3d dc:|2 d3d cd||
|:B2 Bd cd|A3d cA|G3B AG|F3F GF|EF GA B/c/d|
c2 A2 A/B/c|1 B2 BA FA|F3d cd:|2 d2 f2 ec|dA FA D2||

